X:121
T:score205
L:1/8
Q:1/4=96
M:4/4
I:linebreak $
K:Bmin
 (B,CDE FD F2 | ^EC E2 =E=C E2) | (B,CDE FDFB |$ AFDF A4) | (Bcde fd f2 | ^ec e2 =e=c e2) |$ %6
 (B^cde fdfb | fdfb B4) |] %8
